X:135
T: WINTER ADE
N: B0626
O: Europa, Mitteleuropa, Deutschland
R: Kinder -, Jahreszeiten - Lied, Winter
M: 3/8
L: 1/16
K: G
 | B2B2A2 | G6 |
B2B2A2 | G6 |
B2c2d2 | d2cBc2 |
A2B2c2 | c2BAB2 |
B2B2c2 | d6 |
B2B2A2 | G6

@@@ Tune index: 2353
